Newaita-dark/.DP/32/skype-status-away.svg

<svg xmlns="http://www.w3.org/2000/svg" xmlns:xlink="http://www.w3.org/1999/xlink" width="32px" height="32px" viewBox="0 0 32 32" version="1.1">
<g id="surface1">
<path style=" stroke:none;fill-rule:nonzero;fill:rgb(93.333334%,93.333334%,93.333334%);fill-opacity:1;" d="M 10.726562 4.199219 C 7.59375 4.199219 5.070312 6.722656 5.070312 9.855469 C 5.070312 10.804688 5.300781 11.695312 5.707031 12.480469 C 5.296875 13.621094 5.070312 14.855469 5.070312 16.140625 C 5.070312 22.058594 9.835938 26.824219 15.753906 26.824219 C 16.214844 26.824219 16.667969 26.796875 17.117188 26.738281 C 18.101562 27.578125 19.378906 28.082031 20.78125 28.082031 C 23.917969 28.082031 26.441406 25.558594 26.441406 22.425781 C 26.441406 21.480469 26.207031 20.585938 25.800781 19.804688 C 26.214844 18.660156 26.441406 17.429688 26.441406 16.140625 C 26.441406 10.222656 21.675781 5.457031 15.753906 5.457031 C 15.292969 5.457031 14.839844 5.488281 14.394531 5.542969 C 13.40625 4.703125 12.128906 4.199219 10.726562 4.199219 Z M 17.183594 11.488281 C 17.542969 11.488281 17.882812 11.632812 18.128906 11.886719 L 21.4375 15.195312 C 21.953125 15.710938 21.953125 16.542969 21.4375 17.058594 L 18.128906 20.363281 C 17.800781 20.707031 17.308594 20.839844 16.851562 20.71875 C 16.394531 20.597656 16.035156 20.238281 15.914062 19.78125 C 15.792969 19.324219 15.929688 18.832031 16.269531 18.503906 L 17.328125 17.441406 L 11.246094 17.441406 C 10.769531 17.449219 10.328125 17.199219 10.089844 16.792969 C 9.847656 16.378906 9.847656 15.871094 10.089844 15.464844 C 10.328125 15.050781 10.769531 14.800781 11.246094 14.808594 L 17.328125 14.808594 L 16.269531 13.75 C 15.882812 13.378906 15.765625 12.808594 15.964844 12.308594 C 16.167969 11.816406 16.652344 11.488281 17.183594 11.488281 Z M 17.183594 11.488281 "/>
</g>
</svg>

<svg xmlns="http://www.w3.org/2000/svg" width="32pt" height="32pt" viewBox="0 0 32 32"><path d="M10.727 4.2A5.645 5.645 0 0 0 5.07 9.854c0 .95.23 1.84.64 2.625a10.713 10.713 0 0 0-.64 3.66 10.661 10.661 0 0 0 10.684 10.684c.46 0 .918-.027 1.363-.082a5.643 5.643 0 0 0 3.664 1.34 5.642 5.642 0 0 0 5.657-5.656c0-.95-.231-1.84-.637-2.621.414-1.14.637-2.375.637-3.664A10.661 10.661 0 0 0 15.754 5.457c-.461 0-.914.027-1.363.086a5.618 5.618 0 0 0-3.664-1.344zm6.46 7.288c.356 0 .696.145.942.399l3.308 3.308a1.316 1.316 0 0 1 0 1.864l-3.308 3.308a1.31 1.31 0 0 1-1.277.352 1.316 1.316 0 0 1-.582-2.215l1.058-1.063h-6.082a1.311 1.311 0 0 1-1.156-.652 1.323 1.323 0 0 1 0-1.328 1.32 1.32 0 0 1 1.156-.652h6.082L16.27 13.75a1.315 1.315 0 0 1 .918-2.262zm0 0" fill="#bdbdbd"/></svg>
